X:1
T:Title
%%score { 1 | 2 }
L:1/8
Q:1/4=100
M:3/4
K:Eb
V:1 treble nm="Grand Piano"
V:2 bass 
V:1
 G2 F2 E2 | E3 G [GB]2 | [GB]2 [EG]2 [DF]2 | G4 z2 | G2 F2 E2 | E3 G [GB]2 | d2 B2 c2 | [DB]4 z2 | %8
w: Thomas~J.~Cook * *||||||||
 d2 c2 d2 | [Ge]3 [Ac] [GB]2 | d2 c2 [Ad]2 | [Ge]3 [Ac] [GB]2 | [Ece]2 [Ece]2 [EAc]2 | %13
w: |||||
 [EGB]3 [B,EG] [EGB]2 | [G,E]2 [B,EG]2 [A,DF]2 | [G,E]4 z2 |] %16
w: |||
V:2
 [E,B,E]2 [E,A,B,]2 [E,G,B,]2 | [E,G,B,]3 [E,B,E] [E,E]2 | [E,E]2 [E,B,]2 [B,,B,]2 | [E,B,E]4 z2 | %4
 [E,B,E]2 [E,A,B,]2 [E,G,B,]2 | [E,G,B,]3 [E,B,E] [E,E]2 | [F,B,F]2 [F,B,D]2 [F,=A,E]2 | %7
 [B,,B,]4 z2 | [B,A]2 [B,A]2 [B,A]2 | [E,B,]3 [E,E] [E,E]2 | [B,A]2 [B,A]2[K:bass] [B,,B,]2 | %11
 [E,B,]3 [E,E] [E,E]2 | A,,2 A,,2 C,2 | E,3 E, E,2 | E,2 B,,2 B,,2 | E,4 z2 |] %16

